

verbatimtex

documentclass[12pt,a4paper]{article}
\usepackage[utf8]{inputenc}
\usepackage[english,russian]{babel}
\usepackage{indentfirst}
\usepackage{misccorr}
\usepackage{graphicx}
\usepackage{amsmath}
\usepackage{palatino,concmath,ccfonts}


\usepackage [ metapost ] { mfpic }

\begin{document}
etex

beginfig(1);

%Привет привет

draw fullcircle scaled 30 withcolor red;
  
endfig;

verbatimtex
\end{document}
etex

end.
